svg/home-work-btn-bg.svg

<svg xmlns="http://www.w3.org/2000/svg" width="632" height="480" fill="none"><path stroke="#4D4D4D" stroke-linecap="round" stroke-width="3" d="M347.5 478c-7.662-14.608-8.072-31.112-10.5-47.167-2.089-13.806-3.646-27.428-4.778-41.333-.841-10.336-3.005-20.391-2.694-30.806.236-7.911.472-15.772.472-23.694 0-10.693 1-21.308 1-31.972 0-4.47 2.5-8.38 2.5-12.723 0-.026.009.936-.028 1.195-.237 1.659-2.836 3.37-3.861 4.5-4.106 4.527-7.847 9.428-12 13.889-1.136 1.22-.595 2.357-1.222 3.611-1.022 2.043 1.149-1.923 1.416-2.278 1.954-2.587 4.08-5.151 6.195-7.611 3.142-3.657 6.99-6.601 10.389-10 2.203-2.203.439-.234 1.722 2 2.931 5.103 7.56 9.17 11.167 13.778.689.88 1.367 2.019 1.722 3.083.426 1.279-.005.841-1.5 1.028M418 2c-.149 5.501 3.241 10.955 4.389 16.278 1.658 7.692 1.324 15.941.583 23.722-1.509 15.85-3.266 31.701-9.472 46.5-10.049 23.962-28.12 42.448-47.333 59.333-7.781 6.838-16.31 13.988-22.528 22.334-4.052 5.438-4.672 12.972-6.028 19.389-1.31 6.197-1.672 12.457-2.861 18.666-.72 3.762-.631 7.891-1.75 11.528-.538 1.747-.708 3.486-1.111 5.25-.636 2.78-.431-1.613-1.195-2.778-2.668-4.072-5.02-8.829-6.083-13.611-.445-2 .643 1.31.778 1.667.832 2.209 2.034 4.124 3.083 6.222 1.351 2.701 2.681 5.739 3.639 8.611.214.641.386 3.258.694 2.778 2.69-4.183 5.459-8.112 8.973-11.667 1.223-1.237 7.488-5.323 6.222-7.222m29-10.5a2695.834 2695.834 0 0 1-5.778 21.806c-.141.528-2.473 7.055-.389 6.361 5.005-1.668 9.197-7.52 13.278-10.667 2.646-2.041 5.713-3.73 8.167-6 .638-.59 1.342-1 .222-1m28.5 12c-5.514 7.269-11.077 14.499-15.111 22.722-.447.911-1.445 2.234.111 2.278 2.346.067 4.661-.025 7 .278 5.994.777 12.829.493 18.639 2 .995.258 3.003 1.722.861 1.722m5 22c-7.998 3.56-15.922 7.291-23.889 10.889-1.145.517-3.611 1.384-3.611 2.889 0 4.919 3.877 8.679 6.222 12.722 1.317 2.271 2.516 4.602 3.75 6.917.281.526 1.417 1.583 1.028 1.583m-26.5-1.5c-5.219-2.907-10.417-7.067-16.056-9.028-2.02-.702-3.94-1.627-5.944-2.361-3.708-1.358-2.964 2.837-3 5.556-.075 5.593-1 11.078-1 16.666 0 2.323.283 2.667-2 2.667m-83-3.5c-1.289-2.822-7.369-19.942-12.889-16-4.27 3.05-8.038 7.6-11.5 11.5-1.104 1.244-4.576 7.357-6.611 6m-34.5 0c0-7.661-.754-15.787.25-23.417.164-1.242 1.026-3.583-.75-3.583-3.269 0-6.515.006-9.778.25-3.881.29-7.852 1.25-11.722 1.25m0-28c6.858-2.174 15.049-3.668 21.417-7.25.744-.419.825-2.005.472-2.75-1.651-3.486-5.425-6.417-7.583-9.694-1.19-1.808-2.904-4.001-3.806-5.806m31-19c6.642 3.343 13.037 7.538 19.694 10.722.516.247 2.565 1.437 3.195.667.52-.636.114-3.061.139-3.75.132-3.623.645-7.289 1.25-10.861.441-2.607 1.034-5.147 1.333-7.778.221-1.941.934-3.022-1.111-2"/><path stroke="#4D4D4D" stroke-linecap="round" stroke-width="3" d="M257.5 232.5c-1.529-9.478-7.917-17.127-12.25-25.472-2.172-4.183-4.737-7.953-8.361-11.028-3.537-3.001-7.923-5.134-11.667-7.889-8.045-5.92-17.076-11.014-25.694-16.083-1.046-.616-6.528-5.048-6.528-3.028m22 87.5c-13.511-6.883-28.636-15.344-44-16.389-9.137-.621-17.452 1.733-26.417 2.639-13.068 1.322-26.368 1.272-39.305-1-21.41-3.759-44.302-12.83-59.917-28.444-2.353-2.353-4.477-4.922-6.833-7.278-2.39-2.39-5.224-4.462-7.417-7.028-.468-.548-1.455-2.944-2.333-2.944-.602 0 1.044 3.089 1.222 3.444m241 103c-1.318.824-1 2.16-1 3.556 0 4.507.07 9.021-.028 13.527-.518 23.857-10.71 47.703-19.861 69.389-9.086 21.535-20.372 42.959-34.111 61.917-3.173 4.378-6.08 8.847-9 13.389-.991 1.542-1.193 2.647-.5.222m163-167c4.632 3.881 7.498 9.761 10.611 14.833 3.483 5.675 6.663 11.524 10.333 17.084 7.109 10.768 15.605 20.519 22.806 31.222 4.697 6.982 8.298 13.96 10.639 22.028 1.206 4.155 2.013 8.479 4 12.361 2.636 5.148 7.011 9.872 8.611 15.472m-24-122c1.337-2.262 9.009.735 11.222 1.111 12.262 2.081 24.387 4.726 36.417 7.889 8.193 2.154 16.187 4.567 24.222 7.167.578.187 2.871.333 1.139.333m-79-57.5c18.27-12.023 35.58-25.404 54.222-36.889 29.096-17.925 61.481-30.303 92.889-43.528 17.749-7.473 36.093-13.619 54.25-20.027 3.758-1.327 7.866-2.42 11-5 2.543-2.094 1.019-2.263-1.361-3.056m-246 87.5c.609-2.261 2.284-4.241 3.611-6.111a369.2 369.2 0 0 1 10.333-13.833c14.468-18.486 30.782-35.355 48.056-51.223 15.138-13.905 30.143-27.991 45.361-41.805 16.478-14.958 34.345-27.225 53.75-38.028 29.963-16.68 62.555-28.057 91.917-46 1.466-.896 4.423-2.134 5.444-3.667 1.102-1.653-1.567 3.762-2.972 5.167M216 289c-2.791 7.73-11.009 11.619-17 16.611-12.174 10.145-24.039 19.969-37.333 28.722-35.386 23.299-70.623 46.598-106.556 69.056C40.717 412.385 27.808 422.585 14.5 433 10.808 435.889 2 441.75 2 447"/></svg>

<svg width="632" height="480" viewBox="0 0 632 480" fill="none" xmlns="http://www.w3.org/2000/svg">
<path d="M347.5 478C339.838 463.392 339.428 446.888 337 430.833C334.911 417.027 333.354 403.405 332.222 389.5C331.381 379.164 329.217 369.109 329.528 358.694C329.764 350.783 330 342.922 330 335C330 324.307 331 313.692 331 303.028C331 298.558 333.5 294.648 333.5 290.305C333.5 290.279 333.509 291.241 333.472 291.5C333.235 293.159 330.636 294.87 329.611 296C325.505 300.527 321.764 305.428 317.611 309.889C316.475 311.109 317.016 312.246 316.389 313.5C315.367 315.543 317.538 311.577 317.805 311.222C319.759 308.635 321.885 306.071 324 303.611C327.142 299.954 330.99 297.01 334.389 293.611C336.592 291.408 334.828 293.377 336.111 295.611C339.042 300.714 343.671 304.781 347.278 309.389C347.967 310.269 348.645 311.408 349 312.472C349.426 313.751 348.995 313.313 347.5 313.5" stroke="#4D4D4D" stroke-width="3" stroke-linecap="round"/>
<path d="M418 2C417.851 7.5011 421.241 12.9547 422.389 18.2778C424.047 25.9702 423.713 34.2194 422.972 42C421.463 57.8501 419.706 73.701 413.5 88.5C403.451 112.462 385.38 130.948 366.167 147.833C358.386 154.671 349.857 161.821 343.639 170.167C339.587 175.605 338.967 183.139 337.611 189.556C336.301 195.753 335.939 202.013 334.75 208.222C334.03 211.984 334.119 216.113 333 219.75C332.462 221.497 332.292 223.236 331.889 225C331.253 227.78 331.458 223.387 330.694 222.222C328.026 218.15 325.674 213.393 324.611 208.611C324.166 206.611 325.254 209.921 325.389 210.278C326.221 212.487 327.423 214.402 328.472 216.5C329.823 219.201 331.153 222.239 332.111 225.111C332.325 225.752 332.497 228.369 332.805 227.889C335.495 223.706 338.264 219.777 341.778 216.222C343.001 214.985 349.266 210.899 348 209" stroke="#4D4D4D" stroke-width="3" stroke-linecap="round"/>
<path d="M377 198.5C375.109 205.789 373.172 213.04 371.222 220.306C371.081 220.834 368.749 227.361 370.833 226.667C375.838 224.999 380.03 219.147 384.111 216C386.757 213.959 389.824 212.27 392.278 210C392.916 209.41 393.62 209 392.5 209" stroke="#4D4D4D" stroke-width="3" stroke-linecap="round"/>
<path d="M421 221C415.486 228.269 409.923 235.499 405.889 243.722C405.442 244.633 404.444 245.956 406 246C408.346 246.067 410.661 245.975 413 246.278C418.994 247.055 425.829 246.771 431.639 248.278C432.634 248.536 434.642 250 432.5 250" stroke="#4D4D4D" stroke-width="3" stroke-linecap="round"/>
<path d="M437.5 272C429.502 275.56 421.578 279.291 413.611 282.889C412.466 283.406 410 284.273 410 285.778C410 290.697 413.877 294.457 416.222 298.5C417.539 300.771 418.738 303.102 419.972 305.417C420.253 305.943 421.389 307 421 307" stroke="#4D4D4D" stroke-width="3" stroke-linecap="round"/>
<path d="M394.5 305.5C389.281 302.593 384.083 298.433 378.444 296.472C376.424 295.77 374.504 294.845 372.5 294.111C368.792 292.753 369.536 296.948 369.5 299.667C369.425 305.26 368.5 310.745 368.5 316.333C368.5 318.656 368.783 319 366.5 319" stroke="#4D4D4D" stroke-width="3" stroke-linecap="round"/>
<path d="M283.5 315.5C282.211 312.678 276.131 295.558 270.611 299.5C266.341 302.55 262.573 307.1 259.111 311C258.007 312.244 254.535 318.357 252.5 317" stroke="#4D4D4D" stroke-width="3" stroke-linecap="round"/>
<path d="M218 317C218 309.339 217.246 301.213 218.25 293.583C218.414 292.341 219.276 290 217.5 290C214.231 290 210.985 290.006 207.722 290.25C203.841 290.54 199.87 291.5 196 291.5" stroke="#4D4D4D" stroke-width="3" stroke-linecap="round"/>
<path d="M196 263.5C202.858 261.326 211.049 259.832 217.417 256.25C218.161 255.831 218.242 254.245 217.889 253.5C216.238 250.014 212.464 247.083 210.306 243.806C209.116 241.998 207.402 239.805 206.5 238" stroke="#4D4D4D" stroke-width="3" stroke-linecap="round"/>
<path d="M237.5 219C244.142 222.343 250.537 226.538 257.194 229.722C257.71 229.969 259.759 231.159 260.389 230.389C260.909 229.753 260.503 227.328 260.528 226.639C260.66 223.016 261.173 219.35 261.778 215.778C262.219 213.171 262.812 210.631 263.111 208C263.332 206.059 264.045 204.978 262 206" stroke="#4D4D4D" stroke-width="3" stroke-linecap="round"/>
<path d="M257.5 232.5C255.971 223.022 249.583 215.373 245.25 207.028C243.078 202.845 240.513 199.075 236.889 196C233.352 192.999 228.966 190.866 225.222 188.111C217.177 182.191 208.146 177.097 199.528 172.028C198.482 171.412 193 166.98 193 169" stroke="#4D4D4D" stroke-width="3" stroke-linecap="round"/>
<path d="M215 256.5C201.489 249.617 186.364 241.156 171 240.111C161.863 239.49 153.548 241.844 144.583 242.75C131.515 244.072 118.215 244.022 105.278 241.75C83.8682 237.991 60.9756 228.92 45.3612 213.306C43.0081 210.953 40.8839 208.384 38.5278 206.028C36.1381 203.638 33.3036 201.566 31.1112 199C30.6426 198.452 29.6556 196.056 28.7778 196.056C28.1762 196.056 29.8224 199.145 30.0001 199.5" stroke="#4D4D4D" stroke-width="3" stroke-linecap="round"/>
<path d="M271 302.5C269.682 303.324 270 304.66 270 306.056C270 310.563 270.07 315.077 269.972 319.583C269.454 343.44 259.262 367.286 250.111 388.972C241.025 410.507 229.739 431.931 216 450.889C212.827 455.267 209.92 459.736 207 464.278C206.009 465.82 205.807 466.925 206.5 464.5" stroke="#4D4D4D" stroke-width="3" stroke-linecap="round"/>
<path d="M369.5 297.5C374.132 301.381 376.998 307.261 380.111 312.333C383.594 318.008 386.774 323.857 390.444 329.417C397.553 340.185 406.049 349.936 413.25 360.639C417.947 367.621 421.548 374.599 423.889 382.667C425.095 386.822 425.902 391.146 427.889 395.028C430.525 400.176 434.9 404.9 436.5 410.5" stroke="#4D4D4D" stroke-width="3" stroke-linecap="round"/>
<path d="M412.5 288.5C413.837 286.238 421.509 289.235 423.722 289.611C435.984 291.692 448.109 294.337 460.139 297.5C468.332 299.654 476.326 302.067 484.361 304.667C484.939 304.854 487.232 305 485.5 305" stroke="#4D4D4D" stroke-width="3" stroke-linecap="round"/>
<path d="M406.5 247.5C424.77 235.477 442.08 222.096 460.722 210.611C489.818 192.686 522.203 180.308 553.611 167.083C571.36 159.61 589.704 153.464 607.861 147.056C611.619 145.729 615.727 144.636 618.861 142.056C621.404 139.962 619.88 139.793 617.5 139" stroke="#4D4D4D" stroke-width="3" stroke-linecap="round"/>
<path d="M371.5 226.5C372.109 224.239 373.784 222.259 375.111 220.389C378.441 215.697 381.899 211.086 385.444 206.556C399.912 188.07 416.226 171.201 433.5 155.333C448.638 141.428 463.643 127.342 478.861 113.528C495.339 98.57 513.206 86.3031 532.611 75.5001C562.574 58.8199 595.166 47.4432 624.528 29.5001C625.994 28.6043 628.951 27.3656 629.972 25.8334C631.074 24.1803 628.405 29.5952 627 31.0001" stroke="#4D4D4D" stroke-width="3" stroke-linecap="round"/>
<path d="M216 289C213.209 296.73 204.991 300.619 199 305.611C186.826 315.756 174.961 325.58 161.667 334.333C126.281 357.632 91.0438 380.931 55.1111 403.389C40.7168 412.385 27.8084 422.585 14.5 433C10.8082 435.889 2 441.75 2 447" stroke="#4D4D4D" stroke-width="3" stroke-linecap="round"/>
</svg>
